X:40
T:An dro d'Elven
C:Loffet 4
M:4/4
L:1/8
K:G
G2d2B2G2|d2 de dcAB|1 c2cd B2G2|\
ABcB Adcd:|2 c2cd B2GA|(3BAG AFG4||
|: G2c2A2d2|G2 GA BcAB|1 c2 cd B2G2|\
ABcB Adcd:|2 c2 cd B2GA|(3BAG AFG4||
